common/src/main/resources/icons/plugins/markdown/Underline_dark.svg

<svg xmlns="http://www.w3.org/2000/svg" width="16" height="16" fill="#FDD835" data-big="true" viewBox="0 0 24 24"><path d="M5 21h14v-2H5zm7-4a6 6 0 0 0 6-6V3h-2.5v8a3.5 3.5 0 0 1-3.5 3.5A3.5 3.5 0 0 1 8.5 11V3H6v8a6 6 0 0 0 6 6"/></svg>

<!--
  - The MIT License (MIT)
  -
  - Copyright (c) 2015-2024 Elior "Mallowigi" Boukhobza
  -
  - Permission is hereby granted, free of charge, to any person obtaining a copy
  - of this software and associated documentation files (the "Software"), to deal
  - in the Software without restriction, including without limitation the rights
  - to use, copy, modify, merge, publish, distribute, sublicense, and/or sell
  - copies of the Software, and to permit persons to whom the Software is
  - furnished to do so, subject to the following conditions:
  -
  - The above copyright notice and this permission notice shall be included in all
  - copies or substantial portions of the Software.
  -
  - THE SOFTWARE IS PROVIDED "AS IS", WITHOUT WARRANTY OF ANY KIND, EXPRESS OR
  - IMPLIED, INCLUDING BUT NOT LIMITED TO THE WARRANTIES OF MERCHANTABILITY,
  - FITNESS FOR A PARTICULAR PURPOSE AND NONINFRINGEMENT. IN NO EVENT SHALL THE
  - AUTHORS OR COPYRIGHT HOLDERS BE LIABLE FOR ANY CLAIM, DAMAGES OR OTHER
  - LIABILITY, WHETHER IN AN ACTION OF CONTRACT, TORT OR OTHERWISE, ARISING FROM,
  - OUT OF OR IN CONNECTION WITH THE SOFTWARE OR THE USE OR OTHER DEALINGS IN THE
  - SOFTWARE.
  -->


<svg data-big="true" xmlns="http://www.w3.org/2000/svg" fill="#FDD835" version="1.1" width="16px" height="16px"
     viewBox="0 0 24 24">
  <path
    d="M5,21H19V19H5V21M12,17A6,6 0 0,0 18,11V3H15.5V11A3.5,3.5 0 0,1 12,14.5A3.5,3.5 0 0,1 8.5,11V3H6V11A6,6 0 0,0 12,17Z"/>
</svg>
